X:213
T:Ten Pound Lass. (p)1670.PLFD.213
M:4/4
L:1/8
Q:1/2=100
S:Playford, Dancing Master,4th Ed.,1670.
O:England
H:1670.
Z:Chris Partington
K:F
A2 A2d4|^F3 G A2 c2|B2 G2 G2 A2 |B2 cB A2 G2:|
|:A2 A2 f4| e2 f2 g2 fe|d2 d2 g2 a2| b2 c'b a2 g2|
f2 f2 f4|^F3 G A3 c|B2G2 G2 A2|B2 cB A2 G2:|
